X: 27
T:Fairy Dance,The. GS.027
T:Largo's Fairy Dance,aka. GS.027
M:2/4
L:1/8
Q:400
S:George Spencer m/s, Leeds,1831
R:Reel
O:England
A:Leeds
H:1831
Z:vmp.Cherri Graebe
K:D Major
f2(fd) | f2(fd) | f2 (fd) | (cA)(ec) | f2 (fd) | (gf)(ed) |  (cA)(Bc) |
d2d2 :||:!
a2(af) | b2b2 | gfge | a2a2 | f2 fd | gfed | cABc | d2 d2 :||
